/* XPM */
static char * door_xpm[] = {
"30 30 7 1",
" 	c None",
".	c #282C3C",
"+	c #886E6A",
"@	c #A69E9A",
"#	c #33272A",
"$	c #594D4D",
"%	c #BDA499",
"                              ",
"  ..........................  ",
" .++++++++++++++++++++++++++. ",
" .+@@++++++++++++++++++++@@+. ",
" .+@@++################++@@+. ",
" .++++#$$$$$$$$$$$$$$$$#++++. ",
" .++++$$$$$$$$$$$$$$$$$$++++. ",
" .++++$$$$$$$$$$$$$$$$$$++++. ",
" .++++$$$$$$$$$$$$$$$$$$++++. ",
" .++++$$$$$$$$$$$$$$$$$$++++. ",
" .++++$$$$$$$$$$$$$$$$$$++++. ",
" .++++%$$$$$$$$$$$$$$$$%++++. ",
" .+@@++%%%%%%%%%%%%%%%%++@@+. ",
" .+@@++++++++++++++++++++@@+. ",
" .++++++++++++++++++++++++++. ",
" ............................ ",
" .$$$$$$$$$$$$$$$$$$$$$$$$$$. ",
" .$$$$$$$$$$$$$$$$@@@@@@@$$$. ",
" .$$$$$$$$$$$$$$$$@....@@$$$. ",
" .$$$$$$$$$$$$$$$$@@@@@@@$$$. ",
" .$$$$$$$$$$$$$$$$@.....@$$$. ",
" .$$$$$$$$$$$$$$$$@@@@@@@$$$. ",
" .$$$$$$$$$$$$$$$$$$$$$$$$$$. ",
" .$$$$$$$$$$$$$$$$$$$$$$$$$$. ",
" .$$$$$$$$$$$$$$$$$$$$$$$$$$. ",
" .$$$$$$$$$$$$$$$$$$$$$$$$$$. ",
" .$$$$$$$$$$$$$$$$$$$$$$$$$$. ",
" .$$$$$$$$$$$$$$$$$$$$$$$$$$. ",
" ............................ ",
"                              "};
