/* XPM */
static char * east_xpm[] = {
"30 30 6 1",
" 	c #282C3C",
".	c #8FD032",
"+	c #88A3BC",
"@	c #5E718E",
"#	c #61A53F",
"$	c #485262",
"  ..........................  ",
" ............................ ",
"++++++++++++++++++++++++++++++",
"+++++++@@@@@@@@@@@@@@@@+++++++",
"+++++++@@@@@@@@@@@@@@@@+++++++",
"+++++@@................@@+++++",
"+++++@@++++++++++++++++@@+++++",
"+++++@@++@++@++++@++@++@@+++++",
"+++++@@++@++@++++@++@++@@+++++",
"+++++@@++@++@++++@++@++@@+++++",
"+++++@@++@++@++++@++@++@@+++++",
"+++++@@++@++@++++@++@++@@+++++",
"+++++@@++@++@++++@++@++@@+++++",
"+++++@@++@++@++++@++@++@@+++++",
"+++++@@++@++@++++@++@++@@+++++",
"+++++@@++@++@++++@++@++@@+++++",
"+++++@@++@++@++++@++@++@@+++++",
"+++++@@++@++@++++@++@++@@+++++",
"+++@@..++.++.++++.++.++..@@+++",
"+++@@++++++++++++++++++++@@+++",
"+++@@+++++++++@@+++++++++@@+++",
"+++@@++++++++@..@++++++++@@+++",
"+++@@+++++++@.##.@+++++++@@+++",
"+++@@++++++@.####.@++++++@@+++",
"+++@@++++++@######@++++++@@+++",
"+++@@+++++++@####@+++++++@@+++",
"+++@@++++++++@##@++++++++@@+++",
"+++@@+++++++++@@+++++++++@@+++",
"+++@@++++++++++++++++++++@@+++",
"$$$$$$$$$$$$$$$$$$$$$$$$$$$$$$"};
