/* XPM */
static char * close_xpm[] = {
"30 30 5 1",
" 	c #282C3C",
".	c #B8CCD8",
"+	c #5E718E",
"@	c #88A3BC",
"#	c #485262",
"  ..........................  ",
" ............................ ",
"..............................",
".......++++++++++++++++.......",
".......++++++++++++++++.......",
".....++................++.....",
".....++@@@@@@@@@@@@@@@@++.....",
".....++@@+@@+@@@@+@@+@@++.....",
".....++@@+@@+@@@@+@@+@@++.....",
".....++@@+@@+@@@@+@@+@@++.....",
".....++@@+@@+@@@@+@@+@@++.....",
".....++@@+@@+@@@@+@@+@@++.....",
".....++@@+@@+@@@@+@@+@@++.....",
".....++@@+@@+@@@@+@@+@@++.....",
".....++@@+@@+@@@@+@@+@@++.....",
".....++@@+@@+@@@@+@@+@@++.....",
".....++@@+@@+@@@@+@@+@@++.....",
".....++@@+@@+@@@@+@@+@@++.....",
"...++..@@.@@.@@@@.@@.@@..++...",
"...++@@@@@@@@@@@@@@@@@@@@++...",
"...++@@@@@@@@@++@@@@@@@@@++...",
"...++@@@@@@@@+..+@@@@@@@@++...",
"...++@@@@@@@+.@@.+@@@@@@@++...",
"...++@@@@@@+.@@@@.+@@@@@@++...",
"...++@@@@@@+@@@@@@+@@@@@@++...",
"...++@@@@@@@+@@@@+@@@@@@@++...",
"...++@@@@@@@@+@@+@@@@@@@@++...",
"...++@@@@@@@@@++@@@@@@@@@++...",
"...++@@@@@@@@@@@@@@@@@@@@++...",
"##############################"};
