/* XPM */
static char * n_lit_xpm[] = {
"30 30 6 1",
" 	c #5E718E",
".	c #B8CCD8",
"+	c #485262",
"@	c #282C3C",
"#	c #A26CEA",
"$	c #88A3BC",
"                              ",
"  .                        .  ",
"  +                        +  ",
"                              ",
"  @@  ##  ##  @@  ##  ##  @@  ",
"  @@  ##  ##  @@  ##  ##  @@  ",
"  @@  ##  ##  @@  ##  ##  @@  ",
"  @@  ##  ##  @@  ##  ##  @@  ",
"  $$  $$  $$  $$  $$  $$  $$  ",
"                              ",
"  @@  ##  ##  @@  ##  ##  @@  ",
"  @@  ##  ##  @@  ##  ##  @@  ",
"  @@  ##  ##  @@  ##  ##  @@  ",
"  @@  ##  ##  @@  ##  ##  @@  ",
"  $$  $$  $$  $$  $$  $$  $$  ",
"                              ",
"  @@  @@  @@  @@  @@  @@  @@  ",
"  @@  @@  @@  @@  @@  @@  @@  ",
"  @@  @@  @@  @@  @@  @@  @@  ",
"  @@  @@  @@  @@  @@  @@  @@  ",
"  $$  $$  $$  $$  $$  $$  $$  ",
"                              ",
"  ##  ##  ##  ##  ##  ##  ##  ",
"  ##  ##  ##  ##  ##  ##  ##  ",
"  ##  ##  ##  ##  ##  ##  ##  ",
"  ##  ##  ##  ##  ##  ##  ##  ",
"  $$  $$  $$  $$  $$  $$  $$  ",
"                              ",
"  .                        .  ",
"  +                        +  "};
