/* XPM */
static char * red_xpm[] = {
"30 30 7 1",
" 	c #282C3C",
".	c #B8CCD8",
"+	c #88A3BC",
"@	c #5E718E",
"#	c #F1641F",
"$	c #B9451D",
"%	c #485262",
"  ..........................  ",
" ............................ ",
"++++++++++++++++++++++++++++++",
"+++++++@@@@@@@@@@@@@@@@+++++++",
"+++++++@@@@@@@@@@@@@@@@+++++++",
"+++++@@................@@+++++",
"+++++@@++++++++++++++++@@+++++",
"+++++@@++@++@++++@++@++@@+++++",
"+++++@@++@++@++++@++@++@@+++++",
"+++++@@++@++@++++@++@++@@+++++",
"+++++@@++@++@++++@++@++@@+++++",
"+++++@@++@++@++++@++@++@@+++++",
"+++++@@++@++@++++@++@++@@+++++",
"+++++@@++@++@++++@++@++@@+++++",
"+++++@@++@++@++++@++@++@@+++++",
"+++++@@++@++@++++@++@++@@+++++",
"+++++@@++@++@++++@++@++@@+++++",
"+++++@@++@++@++++@++@++@@+++++",
"+++@@..++.++.++++.++.++..@@+++",
"+++@@++++++++++++++++++++@@+++",
"+++@@+++++++++@@+++++++++@@+++",
"+++@@++++++++@##@++++++++@@+++",
"+++@@+++++++@#$$#@+++++++@@+++",
"+++@@++++++@#$$$$#@++++++@@+++",
"+++@@++++++@$$$$$$@++++++@@+++",
"+++@@+++++++@$$$$@+++++++@@+++",
"+++@@++++++++@$$@++++++++@@+++",
"+++@@+++++++++@@+++++++++@@+++",
"+++@@++++++++++++++++++++@@+++",
"%%%%%%%%%%%%%%%%%%%%%%%%%%%%%%"};
